;FLAVOR:UltiGCode
;TIME:449
;MATERIAL:285
;MATERIAL2:0
;NOZZLE_DIAMETER:0.4
;Generated with Cura_SteamEngine 2.5.0

;LAYER_COUNT:97
;LAYER:0
M107
G0 F4320 X102.495 Y102.833 Z0.27
;TYPE:SKIRT
G1 F1800 X103.079 Y102.296 E0.07497
G1 X103.714 Y101.82 E0.14997
G1 X104.393 Y101.411 E0.22488
G1 X105.111 Y101.072 E0.29991
G1 X105.7 Y100.863 E0.35897
G1 X105.889 Y100.702 E0.38243
G1 X106.542 Y100.251 E0.45743
G1 X107.237 Y99.868 E0.53242
G1 X107.967 Y99.557 E0.6074
G1 X108.725 Y99.321 E0.68242
G1 X109.846 Y99.118 E0.79008
G1 X110.489 Y99.049 E0.85119
G1 X111.281 Y99.004 E0.92616
G1 X112.074 Y99.039 E1.00117
G1 X112.859 Y99.154 E1.07614
G1 X113.628 Y99.347 E1.15107
G1 X114.375 Y99.617 E1.22613
G1 X114.902 Y99.87 E1.28137
G1 X115.655 Y99.978 E1.35326
G1 X116.425 Y100.169 E1.42823
G1 X117.171 Y100.437 E1.50314
G1 X117.888 Y100.779 E1.57821
G1 X118.566 Y101.191 E1.65318
G1 X119.069 Y101.563 E1.7123
G1 X119.574 Y101.968 E1.77348
G1 X120.167 Y102.495 E1.84845
G1 X120.704 Y103.079 E1.92342
G1 X121.18 Y103.714 E1.99841
G1 X121.589 Y104.393 E2.07332
G1 X121.928 Y105.111 E2.14835
G1 X122.137 Y105.7 E2.20741
G1 X122.298 Y105.889 E2.23088
G1 X122.749 Y106.542 E2.30587
G1 X123.132 Y107.237 E2.38086
G1 X123.443 Y107.967 E2.45585
G1 X123.679 Y108.725 E2.53087
G1 X123.882 Y109.846 E2.63853
G1 X123.951 Y110.489 E2.69964
G1 X123.996 Y111.281 E2.7746
G1 X123.961 Y112.074 E2.84962
G1 X123.846 Y112.859 E2.92459
G1 X123.653 Y113.628 E2.99951
G1 X123.383 Y114.375 E3.07458
G1 X123.131 Y114.899 E3.12952
G1 X123.021 Y115.66 E3.20218
G1 X122.829 Y116.43 E3.27718
G1 X122.561 Y117.177 E3.35217
G1 X122.219 Y117.892 E3.42707
G1 X121.806 Y118.57 E3.5021
G1 X121.437 Y119.069 E3.56074
G1 X121.032 Y119.574 E3.62192
G1 X120.505 Y120.167 E3.69689
G1 X119.921 Y120.704 E3.77186
G1 X119.286 Y121.18 E3.84686
G1 X118.607 Y121.589 E3.92176
G1 X117.889 Y121.928 E3.9968
G1 X117.3 Y122.137 E4.05586
G1 X117.111 Y122.298 E4.07932
G1 X116.458 Y122.749 E4.15431
G1 X115.763 Y123.132 E4.2293
G1 X115.033 Y123.443 E4.30429
G1 X114.275 Y123.679 E4.37931
G1 X113.154 Y123.882 E4.48697
G1 X112.511 Y123.951 E4.54808
G1 X111.719 Y123.996 E4.62305
G1 X110.926 Y123.961 E4.69806
G1 X110.141 Y123.846 E4.77303
G1 X109.372 Y123.653 E4.84796
G1 X108.625 Y123.383 E4.92302
G1 X108.098 Y123.13 E4.97826
G1 X107.345 Y123.022 E5.05015
G1 X106.575 Y122.831 E5.12512
G1 X105.829 Y122.563 E5.20003
G1 X105.112 Y122.221 E5.2751
G1 X104.434 Y121.809 E5.35007
G1 X103.931 Y121.437 E5.40919
G1 X103.426 Y121.032 E5.47036
G1 X102.833 Y120.505 E5.54533
G1 X102.296 Y119.921 E5.62031
G1 X101.82 Y119.286 E5.6953
G1 X101.411 Y118.607 E5.77021
G1 X101.072 Y117.889 E5.84524
G1 X100.863 Y117.3 E5.9043
G1 X100.702 Y117.111 E5.92776
G1 X100.251 Y116.458 E6.00276
G1 X99.868 Y115.763 E6.07775
G1 X99.557 Y115.033 E6.15273
G1 X99.321 Y114.275 E6.22776
G1 X99.118 Y113.154 E6.33541
G1 X99.049 Y112.511 E6.39653
G1 X99.004 Y111.719 E6.47149
G1 X99.039 Y110.926 E6.5465
G1 X99.154 Y110.141 E6.62148
G1 X99.347 Y109.372 E6.6964
G1 X99.617 Y108.625 E6.77146
G1 X99.869 Y108.101 E6.82641
G1 X99.979 Y107.34 E6.89907
G1 X100.171 Y106.57 E6.97406
G1 X100.439 Y105.823 E7.04906
G1 X100.781 Y105.108 E7.12396
G1 X101.194 Y104.43 E7.19898
G1 X101.563 Y103.931 E7.25763
G1 X101.968 Y103.426 E7.3188
G1 X102.495 Y102.833 E7.39377
G0 F4320 X102.756 Y103.066
G1 F1800 X103.329 Y102.543 E7.46709
G1 X103.953 Y102.081 E7.54046
G1 X104.62 Y101.687 E7.61367
G1 X105.325 Y101.363 E7.68699
G1 X105.873 Y101.176 E7.7417
G1 X106.186 Y100.917 E7.7801
G1 X106.831 Y100.486 E7.8534
G1 X107.516 Y100.123 E7.92666
G1 X108.236 Y99.833 E8.00002
G1 X108.981 Y99.619 E8.07327
G1 X109.883 Y99.466 E8.15972
G1 X110.526 Y99.397 E8.22083
G1 X111.301 Y99.354 E8.29418
G1 X112.075 Y99.391 E8.36741
G1 X112.842 Y99.508 E8.44073
G1 X113.593 Y99.703 E8.51405
G1 X114.32 Y99.974 E8.58737
G1 X114.81 Y100.217 E8.63906
G1 X114.941 Y100.224 E8.65146
G1 X115.707 Y100.346 E8.72476
G1 X116.456 Y100.546 E8.79802
G1 X117.181 Y100.822 E8.87133
G1 X117.874 Y101.171 E8.94465
G1 X118.526 Y101.59 E9.01789
G1 X118.85 Y101.836 E9.05633
G1 X119.355 Y102.241 E9.11751
G1 X119.934 Y102.756 E9.19074
G1 X120.457 Y103.329 E9.26405
G1 X120.919 Y103.953 E9.33742
G1 X121.313 Y104.62 E9.41063
G1 X121.637 Y105.325 E9.48395
G1 X121.824 Y105.873 E9.53867
G1 X122.083 Y106.186 E9.57706
G1 X122.514 Y106.831 E9.65037
G1 X122.877 Y107.516 E9.72363
G1 X123.167 Y108.236 E9.79698
G1 X123.381 Y108.981 E9.87023
G1 X123.534 Y109.883 E9.95668
G1 X123.603 Y110.526 E10.0178
G1 X123.646 Y111.301 E10.09115
G1 X123.609 Y112.075 E10.16437
G1 X123.492 Y112.842 E10.23769
G1 X123.297 Y113.593 E10.31102
G1 X123.026 Y114.32 E10.38433
G1 X122.784 Y114.809 E10.43589
G1 X122.776 Y114.946 E10.44886
G1 X122.653 Y115.712 E10.52218
G1 X122.453 Y116.461 E10.59544
G1 X122.176 Y117.186 E10.66878
G1 X121.826 Y117.878 E10.74206
G1 X121.407 Y118.531 E10.81538
G1 X121.164 Y118.85 E10.85328
G1 X120.759 Y119.355 E10.91445
G1 X120.244 Y119.934 E10.98768
G1 X119.671 Y120.457 E11.06099
G1 X119.047 Y120.919 E11.13436
G1 X118.38 Y121.313 E11.20757
G1 X117.675 Y121.637 E11.28089
G1 X117.127 Y121.824 E11.33561
G1 X116.814 Y122.083 E11.374
G1 X116.169 Y122.514 E11.44731
G1 X115.484 Y122.877 E11.52057
G1 X114.764 Y123.167 E11.59392
G1 X114.019 Y123.381 E11.66717
G1 X113.117 Y123.534 E11.75363
G1 X112.474 Y123.603 E11.81474
G1 X111.699 Y123.646 E11.88809
G1 X110.925 Y123.609 E11.96132
G1 X110.158 Y123.492 E12.03464
G1 X109.407 Y123.297 E12.10796
G1 X108.68 Y123.026 E12.18128
G1 X108.19 Y122.783 E12.23297
G1 X108.059 Y122.776 E12.24536
G1 X107.293 Y122.654 E12.31866
G1 X106.544 Y122.454 E12.39192
G1 X105.819 Y122.178 E12.46523
G1 X105.126 Y121.829 E12.53856
G1 X104.474 Y121.41 E12.6118
G1 X104.15 Y121.164 E12.65024
G1 X103.645 Y120.759 E12.71141
G1 X103.066 Y120.244 E12.78464
G1 X102.543 Y119.671 E12.85795
G1 X102.081 Y119.047 E12.93132
G1 X101.687 Y118.38 E13.00453
G1 X101.363 Y117.675 E13.07785
G1 X101.176 Y117.127 E13.13257
G1 X100.917 Y116.814 E13.17096
G1 X100.486 Y116.169 E13.24427
G1 X100.123 Y115.484 E13.31753
G1 X99.833 Y114.764 E13.39088
G1 X99.619 Y114.019 E13.46413
G1 X99.466 Y113.117 E13.55059
G1 X99.397 Y112.474 E13.6117
G1 X99.354 Y111.699 E13.68505
G1 X99.391 Y110.925 E13.75828
G1 X99.508 Y110.158 E13.8316
G1 X99.703 Y109.407 E13.90492
G1 X99.974 Y108.68 E13.97824
G1 X100.216 Y108.191 E14.0298
G1 X100.224 Y108.054 E14.04277
G1 X100.347 Y107.288 E14.11608
G1 X100.547 Y106.539 E14.18934
G1 X100.824 Y105.814 E14.26269
G1 X101.174 Y105.122 E14.33597
G1 X101.593 Y104.469 E14.40929
G1 X101.836 Y104.15 E14.44718
G1 X102.241 Y103.645 E14.50836
G1 X102.756 Y103.066 E14.58158
G0 F4320 X103.018 Y103.299
G1 F1800 X103.579 Y102.79 E14.65317
G1 X104.191 Y102.344 E14.72473
G1 X104.846 Y101.964 E14.79629
G1 X105.538 Y101.655 E14.86791
G1 X106.037 Y101.493 E14.91749
G1 X106.482 Y101.134 E14.97152
G1 X107.118 Y100.723 E15.04308
G1 X107.794 Y100.382 E15.11463
G1 X108.502 Y100.113 E15.1862
G1 X109.235 Y99.921 E15.2578
G1 X109.92 Y99.814 E15.32332
G1 X110.563 Y99.745 E15.38443
G1 X111.32 Y99.704 E15.45607
G1 X112.076 Y99.743 E15.52761
G1 X112.824 Y99.862 E15.59919
G1 X113.555 Y100.058 E15.67071
G1 X114.262 Y100.331 E15.74233
G1 X114.715 Y100.564 E15.79046
G1 X115.01 Y100.584 E15.81841
G1 X115.756 Y100.715 E15.88998
G1 X116.484 Y100.924 E15.96156
G1 X117.186 Y101.209 E16.03315
G1 X117.854 Y101.566 E16.10473
G1 X118.631 Y102.109 E16.19431
G1 X119.136 Y102.514 E16.25548
G1 X119.701 Y103.018 E16.32703
G1 X120.21 Y103.579 E16.39862
G1 X120.656 Y104.191 E16.47018
G1 X121.036 Y104.846 E16.54174
G1 X121.345 Y105.538 E16.61335
G1 X121.507 Y106.037 E16.66293
G1 X121.866 Y106.482 E16.71696
G1 X122.277 Y107.118 E16.78852
G1 X122.618 Y107.794 E16.86007
G1 X122.887 Y108.502 E16.93165
G1 X123.079 Y109.235 E17.00325
G1 X123.186 Y109.92 E17.06877
G1 X123.255 Y110.563 E17.12988
G1 X123.296 Y111.32 E17.20152
G1 X123.257 Y112.076 E17.27306
G1 X123.138 Y112.824 E17.34463
G1 X122.942 Y113.555 E17.41615
G1 X122.669 Y114.262 E17.48777
G1 X122.437 Y114.715 E17.53587
G1 X122.416 Y115.015 E17.56429
G1 X122.284 Y115.761 E17.63588
G1 X122.074 Y116.489 E17.70748
G1 X121.789 Y117.19 E17.77899
G1 X121.432 Y117.858 E17.85057
G1 X120.891 Y118.631 E17.93973
G1 X120.486 Y119.136 E18.0009
G1 X119.982 Y119.701 E18.07245
G1 X119.421 Y120.21 E18.14403
G1 X118.809 Y120.656 E18.2156
G1 X118.154 Y121.036 E18.28716
G1 X117.462 Y121.345 E18.35877
G1 X116.963 Y121.507 E18.40835
G1 X116.518 Y121.866 E18.46238
G1 X115.882 Y122.277 E18.53394
G1 X115.206 Y122.618 E18.60549
G1 X114.498 Y122.887 E18.67706
G1 X113.765 Y123.079 E18.74867
G1 X113.08 Y123.186 E18.81419
G1 X112.437 Y123.255 E18.8753
G1 X111.68 Y123.296 E18.94694
G1 X110.924 Y123.257 E19.01848
G1 X110.176 Y123.138 E19.09005
G1 X109.445 Y122.942 E19.16157
G1 X108.738 Y122.669 E19.23319
G1 X108.285 Y122.436 E19.28133
G1 X107.99 Y122.416 E19.30927
G1 X107.244 Y122.285 E19.38085
G1 X106.516 Y122.076 E19.45242
G1 X105.814 Y121.791 E19.52402
G1 X105.146 Y121.434 E19.5956
G1 X104.369 Y120.891 E19.68518
G1 X103.864 Y120.486 E19.74635
G1 X103.299 Y119.982 E19.8179
G1 X102.79 Y119.421 E19.88948
G1 X102.344 Y118.809 E19.96104
G1 X101.964 Y118.154 E20.0326
G1 X101.655 Y117.462 E20.10422
G1 X101.493 Y116.963 E20.1538
G1 X101.134 Y116.518 E20.20783
G1 X100.723 Y115.882 E20.27939
G1 X100.382 Y115.206 E20.35094
G1 X100.113 Y114.498 E20.42251
G1 X99.921 Y113.765 E20.49412
G1 X99.814 Y113.08 E20.55963
G1 X99.745 Y112.437 E20.62075
G1 X99.704 Y111.68 E20.69239
G1 X99.743 Y110.924 E20.76393
G1 X99.862 Y110.176 E20.8355
G1 X100.058 Y109.445 E20.90702
G1 X100.331 Y108.738 E20.97864
G1 X100.563 Y108.285 E21.02674
G1 X100.584 Y107.985 E21.05515
G1 X100.716 Y107.239 E21.12675
G1 X100.926 Y106.511 E21.19835
G1 X101.211 Y105.81 E21.26986
G1 X101.568 Y105.142 E21.34143
G1 X102.109 Y104.369 E21.4306
G1 X102.514 Y103.864 E21.49177
G1 X103.018 Y103.299 E21.56332
G0 F4320 X103.279 Y103.533
G1 F1800 X103.829 Y103.039 E21.63318
G1 X104.428 Y102.607 E21.70297
G1 X105.07 Y102.243 E21.77271
G1 X105.749 Y101.95 E21.8426
G1 X106.189 Y101.814 E21.88612
G1 X106.194 Y101.809 E21.88679
G1 X106.776 Y101.354 E21.9566
G1 X107.403 Y100.964 E22.02638
G1 X108.069 Y100.645 E22.09616
G1 X108.766 Y100.399 E22.16601
G1 X109.485 Y100.23 E22.23581
G1 X109.958 Y100.162 E22.28096
G1 X110.601 Y100.093 E22.34208
G1 X111.338 Y100.054 E22.41182
G1 X112.076 Y100.095 E22.48167
G1 X112.805 Y100.215 E22.55149
G1 X113.516 Y100.414 E22.62126
G1 X114.202 Y100.688 E22.69106
G1 X114.613 Y100.907 E22.73507
G1 X115.076 Y100.945 E22.77897
G1 X115.802 Y101.086 E22.84886
G1 X116.507 Y101.304 E22.9186
G1 X117.185 Y101.597 E22.9884
G1 X117.828 Y101.962 E23.05827
G1 X118.412 Y102.382 E23.12625
G1 X118.917 Y102.787 E23.18742
G1 X119.467 Y103.279 E23.25715
G1 X119.961 Y103.829 E23.32702
G1 X120.393 Y104.428 E23.39681
G1 X120.757 Y105.07 E23.46655
G1 X121.05 Y105.749 E23.53643
G1 X121.186 Y106.189 E23.57996
G1 X121.191 Y106.194 E23.58062
G1 X121.646 Y106.776 E23.65044
G1 X122.036 Y107.403 E23.72021
G1 X122.355 Y108.069 E23.79
G1 X122.601 Y108.766 E23.85985
G1 X122.77 Y109.485 E23.92964
G1 X122.838 Y109.958 E23.9748
G1 X122.907 Y110.601 E24.03591
G1 X122.946 Y111.338 E24.10566
G1 X122.905 Y112.076 E24.17551
G1 X122.785 Y112.805 E24.24532
G1 X122.586 Y113.516 E24.3151
G1 X122.312 Y114.202 E24.3849
G1 X122.093 Y114.613 E24.42891
G1 X122.054 Y115.081 E24.47329
G1 X121.913 Y115.806 E24.54309
G1 X121.694 Y116.512 E24.61294
G1 X121.401 Y117.19 E24.68274
G1 X121.036 Y117.832 E24.75253
G1 X120.618 Y118.412 E24.82009
G1 X120.213 Y118.917 E24.88126
G1 X119.721 Y119.467 E24.951
G1 X119.171 Y119.961 E25.02086
G1 X118.572 Y120.393 E25.09065
G1 X117.93 Y120.757 E25.16039
G1 X117.251 Y121.05 E25.23028
G1 X116.811 Y121.186 E25.2738
G1 X116.806 Y121.191 E25.27447
G1 X116.224 Y121.646 E25.34428
G1 X115.597 Y122.036 E25.41406
G1 X114.931 Y122.355 E25.48384
G1 X114.234 Y122.601 E25.55369
G1 X113.515 Y122.77 E25.62349
G1 X113.042 Y122.838 E25.66864
G1 X112.399 Y122.907 E25.72976
G1 X111.662 Y122.946 E25.7995
G1 X110.924 Y122.905 E25.86935
G1 X110.195 Y122.785 E25.93917
G1 X109.484 Y122.586 E26.00894
G1 X108.798 Y122.312 E26.07875
G1 X108.387 Y122.093 E26.12275
G1 X107.924 Y122.055 E26.16665
G1 X107.198 Y121.914 E26.23654
G1 X106.493 Y121.696 E26.30628
G1 X105.815 Y121.403 E26.37608
G1 X105.172 Y121.038 E26.44595
G1 X104.588 Y120.618 E26.51393
G1 X104.083 Y120.213 E26.5751
G1 X103.533 Y119.721 E26.64484
G1 X103.039 Y119.171 E26.7147
G1 X102.607 Y118.572 E26.78449
G1 X102.243 Y117.93 E26.85423
G1 X101.95 Y117.251 E26.92411
G1 X101.814 Y116.811 E26.96764
G1 X101.809 Y116.806 E26.9683
G1 X101.354 Y116.224 E27.03812
G1 X100.964 Y115.597 E27.10789
G1 X100.645 Y114.931 E27.17768
G1 X100.399 Y114.234 E27.24753
G1 X100.23 Y113.515 E27.31732
G1 X100.162 Y113.042 E27.36248
G1 X100.093 Y112.399 E27.42359
G1 X100.054 Y111.662 E27.49334
G1 X100.095 Y110.924 E27.56319
G1 X100.215 Y110.195 E27.633
G1 X100.414 Y109.484 E27.70278
G1 X100.688 Y108.798 E27.77258
G1 X100.907 Y108.386 E27.81668
G1 X100.946 Y107.919 E27.86096
G1 X101.087 Y107.194 E27.93076
G1 X101.306 Y106.488 E28.00061
G1 X101.599 Y105.81 E28.07041
G1 X101.964 Y105.168 E28.1402
G1 X102.382 Y104.588 E28.20776
G1 X102.787 Y104.083 E28.26893
G1 X103.279 Y103.533 E28.33867
G0 F4320 X103.54 Y103.767
G1 F1800 X104.077 Y103.288 E28.40667
G1 X104.664 Y102.872 E28.47466
G1 X105.294 Y102.523 E28.54272
G1 X105.958 Y102.247 E28.61067
G1 X106.377 Y102.124 E28.65194
G1 X106.495 Y102.012 E28.66731
G1 X107.069 Y101.577 E28.73537
G1 X107.687 Y101.209 E28.80334
G1 X108.342 Y100.912 E28.8713
G1 X109.026 Y100.689 E28.93929
G1 X109.995 Y100.51 E29.03241
G1 X110.638 Y100.441 E29.09352
G1 X111.357 Y100.404 E29.16156
G1 X112.075 Y100.447 E29.22953
G1 X112.784 Y100.57 E29.29753
G1 X113.475 Y100.77 E29.36551
G1 X114.139 Y101.046 E29.43346
G1 X114.499 Y101.244 E29.47229
G1 X115.14 Y101.308 E29.53317
G1 X115.843 Y101.458 E29.6011
G1 X116.526 Y101.686 E29.66914
G1 X117.179 Y101.987 E29.73709
G1 X117.795 Y102.36 E29.80514
G1 X118.193 Y102.655 E29.85196
G1 X118.698 Y103.06 E29.91313
G1 X119.233 Y103.54 E29.98105
G1 X119.712 Y104.077 E30.04906
G1 X120.128 Y104.664 E30.11704
G1 X120.477 Y105.294 E30.1851
G1 X120.753 Y105.958 E30.25306
G1 X120.876 Y106.377 E30.29432
G1 X120.988 Y106.495 E30.3097
G1 X121.423 Y107.069 E30.37776
G1 X121.791 Y107.687 E30.44573
G1 X122.088 Y108.342 E30.51369
G1 X122.311 Y109.026 E30.58168
G1 X122.49 Y109.995 E30.6748
G1 X122.559 Y110.638 E30.73591
G1 X122.596 Y111.357 E30.80395
G1 X122.553 Y112.075 E30.87192
G1 X122.43 Y112.784 E30.93992
G1 X122.23 Y113.475 E31.0079
G1 X121.954 Y114.139 E31.07585
G1 X121.756 Y114.499 E31.11468
G1 X121.691 Y115.144 E31.17594
G1 X121.54 Y115.848 E31.24398
G1 X121.313 Y116.53 E31.31191
G1 X121.01 Y117.183 E31.37993
G1 X120.638 Y117.798 E31.44786
G1 X120.345 Y118.193 E31.49433
G1 X119.94 Y118.698 E31.55551
G1 X119.46 Y119.233 E31.62343
G1 X118.923 Y119.712 E31.69143
G1 X118.336 Y120.128 E31.75942
G1 X117.706 Y120.477 E31.82748
G1 X117.042 Y120.753 E31.89543
G1 X116.623 Y120.876 E31.9367
G1 X116.505 Y120.988 E31.95207
G1 X115.931 Y121.423 E32.02013
G1 X115.313 Y121.791 E32.0881
G1 X114.658 Y122.088 E32.15607
G1 X113.974 Y122.311 E32.22405
G1 X113.005 Y122.49 E32.31717
G1 X112.362 Y122.559 E32.37829
G1 X111.643 Y122.596 E32.44632
G1 X110.925 Y122.553 E32.51429
G1 X110.216 Y122.43 E32.58229
G1 X109.525 Y122.23 E32.65027
G1 X108.861 Y121.954 E32.71823
G1 X108.501 Y121.756 E32.75705
G1 X107.86 Y121.692 E32.81793
G1 X107.157 Y121.542 E32.88586
G1 X106.474 Y121.314 E32.9539
G1 X105.821 Y121.013 E33.02185
G1 X105.205 Y120.64 E33.0899
G1 X104.807 Y120.345 E33.13672
G1 X104.302 Y119.94 E33.19789
G1 X103.767 Y119.46 E33.26582
G1 X103.288 Y118.923 E33.33382
G1 X102.872 Y118.336 E33.40181
G1 X102.523 Y117.706 E33.46987
G1 X102.247 Y117.042 E33.53782
G1 X102.124 Y116.623 E33.57909
G1 X102.012 Y116.505 E33.59446
G1 X101.577 Y115.931 E33.66252
G1 X101.209 Y115.313 E33.73049
G1 X100.912 Y114.658 E33.79845
G1 X100.689 Y113.974 E33.86644
G1 X100.51 Y113.005 E33.95956
G1 X100.441 Y112.362 E34.02067
G1 X100.404 Y111.643 E34.08871
G1 X100.447 Y110.925 E34.15668
