;FLAVOR:UltiGCode
;TIME:4234
;MATERIAL:2248
;MATERIAL2:0
;NOZZLE_DIAMETER:0.4
;Generated with Cura_SteamEngine 2.5.0

;LAYER_COUNT:47
;LAYER:0
M107
G0 F4320 X89.55 Y95.317 Z0.27
;TYPE:SKIRT
G1 F1800 X90.149 Y94.797 E0.07496
G1 X90.798 Y94.341 E0.14992
G1 X91.49 Y93.952 E0.22493
G1 X92.217 Y93.634 E0.29992
G1 X92.973 Y93.391 E0.37496
G1 X93.749 Y93.226 E0.44993
G1 X94.537 Y93.14 E0.52484
G1 X95 Y93.126 E0.56861
G1 X128 Y93.126 E3.68711
G1 X128.792 Y93.166 E3.76205
G1 X129.577 Y93.285 E3.83708
G1 X130.345 Y93.483 E3.91203
G1 X131.09 Y93.758 E3.98708
G1 X131.803 Y94.105 E4.06201
G1 X132.478 Y94.523 E4.13704
G1 X133.107 Y95.006 E4.21198
G1 X133.684 Y95.551 E4.28699
G1 X134.204 Y96.15 E4.36195
G1 X134.66 Y96.799 E4.4369
G1 X135.049 Y97.491 E4.51192
G1 X135.367 Y98.218 E4.58691
G1 X135.61 Y98.974 E4.66195
G1 X135.775 Y99.75 E4.73692
G1 X135.861 Y100.538 E4.81183
G1 X135.875 Y101.001 E4.8556
G1 X135.875 Y121.999 E6.83991
G1 X135.835 Y122.791 E6.91485
G1 X135.716 Y123.576 E6.98988
G1 X135.518 Y124.344 E7.06483
G1 X135.243 Y125.089 E7.13988
G1 X134.896 Y125.802 E7.21481
G1 X134.478 Y126.477 E7.28984
G1 X133.995 Y127.106 E7.36478
G1 X133.45 Y127.683 E7.43979
G1 X132.851 Y128.203 E7.51475
G1 X132.202 Y128.659 E7.5897
G1 X131.51 Y129.048 E7.66472
G1 X130.783 Y129.366 E7.73971
G1 X130.027 Y129.609 E7.81475
G1 X129.251 Y129.774 E7.88972
G1 X128.463 Y129.86 E7.96463
G1 X128 Y129.874 E8.0084
G1 X95 Y129.874 E11.1269
G1 X94.208 Y129.834 E11.20184
G1 X93.423 Y129.715 E11.27687
G1 X92.655 Y129.517 E11.35182
G1 X91.91 Y129.242 E11.42687
G1 X91.197 Y128.895 E11.5018
G1 X90.522 Y128.477 E11.57683
G1 X89.893 Y127.994 E11.65177
G1 X89.316 Y127.449 E11.72678
G1 X88.796 Y126.85 E11.80174
G1 X88.34 Y126.201 E11.87669
G1 X87.951 Y125.509 E11.95171
G1 X87.633 Y124.782 E12.0267
G1 X87.39 Y124.026 E12.10174
G1 X87.225 Y123.25 E12.17671
G1 X87.139 Y122.462 E12.25162
G1 X87.125 Y121.999 E12.29539
G1 X87.125 Y101.001 E14.2797
G1 X87.165 Y100.209 E14.35464
G1 X87.284 Y99.424 E14.42967
G1 X87.482 Y98.656 E14.50462
G1 X87.757 Y97.911 E14.57967
G1 X88.104 Y97.198 E14.6546
G1 X88.522 Y96.523 E14.72963
G1 X89.005 Y95.894 E14.80457
G1 X89.55 Y95.317 E14.87958
G0 F4320 X89.894 Y95.474
G1 F1800 X90.49 Y94.977 E14.95291
G1 X91.134 Y94.545 E15.02619
G1 X91.819 Y94.182 E15.09945
G1 X92.538 Y93.89 E15.17279
G1 X93.283 Y93.675 E15.24606
G1 X94.046 Y93.537 E15.31934
G1 X95 Y93.476 E15.40967
G1 X128 Y93.476 E18.52817
G1 X128.775 Y93.516 E18.60151
G1 X129.541 Y93.635 E18.67476
G1 X130.291 Y93.833 E18.74807
G1 X131.017 Y94.107 E18.8214
G1 X131.71 Y94.454 E18.89464
G1 X132.364 Y94.871 E18.96794
G1 X132.972 Y95.353 E19.04126
G1 X133.527 Y95.895 E19.11456
G1 X134.024 Y96.491 E19.1879
G1 X134.456 Y97.135 E19.26118
G1 X134.819 Y97.82 E19.33444
G1 X135.111 Y98.539 E19.40778
G1 X135.326 Y99.284 E19.48105
G1 X135.464 Y100.047 E19.55433
G1 X135.525 Y101.001 E19.64466
G1 X135.525 Y121.999 E21.62897
G1 X135.485 Y122.774 E21.70231
G1 X135.366 Y123.54 E21.77556
G1 X135.168 Y124.29 E21.84887
G1 X134.894 Y125.016 E21.9222
G1 X134.547 Y125.709 E21.99544
G1 X134.13 Y126.363 E22.06873
G1 X133.648 Y126.971 E22.14205
G1 X133.106 Y127.526 E22.21536
G1 X132.51 Y128.023 E22.2887
G1 X131.866 Y128.455 E22.36198
G1 X131.181 Y128.818 E22.43524
G1 X130.462 Y129.11 E22.50858
G1 X129.717 Y129.325 E22.58185
G1 X128.954 Y129.463 E22.65512
G1 X128 Y129.524 E22.74546
G1 X95 Y129.524 E25.86396
G1 X94.225 Y129.484 E25.9373
G1 X93.459 Y129.365 E26.01055
G1 X92.709 Y129.167 E26.08386
G1 X91.983 Y128.893 E26.15719
G1 X91.29 Y128.546 E26.23043
G1 X90.636 Y128.129 E26.30372
G1 X90.028 Y127.647 E26.37704
G1 X89.473 Y127.105 E26.45035
G1 X88.976 Y126.509 E26.52369
G1 X88.544 Y125.865 E26.59697
G1 X88.181 Y125.18 E26.67023
G1 X87.889 Y124.461 E26.74356
G1 X87.674 Y123.716 E26.81684
G1 X87.536 Y122.953 E26.89011
G1 X87.475 Y121.999 E26.98045
G1 X87.475 Y101.001 E28.96476
G1 X87.515 Y100.226 E29.0381
G1 X87.634 Y99.46 E29.11135
G1 X87.832 Y98.71 E29.18465
G1 X88.106 Y97.984 E29.25798
G1 X88.453 Y97.291 E29.33122
G1 X88.87 Y96.637 E29.40452
G1 X89.352 Y96.029 E29.47784
G1 X89.894 Y95.474 E29.55115
G0 F4320 X90.237 Y95.635
G1 F1800 X90.829 Y95.163 E29.6227
G1 X91.468 Y94.756 E29.69429
G1 X92.146 Y94.418 E29.76588
G1 X92.855 Y94.154 E29.83738
G1 X93.589 Y93.966 E29.90898
G1 X94.338 Y93.857 E29.98051
G1 X95 Y93.826 E30.04314
G1 X128 Y93.826 E33.16164
G1 X128.756 Y93.866 E33.23318
G1 X129.504 Y93.985 E33.30475
G1 X130.235 Y94.183 E33.37632
G1 X130.942 Y94.457 E33.44797
G1 X131.615 Y94.803 E33.51949
G1 X132.248 Y95.219 E33.59107
G1 X132.834 Y95.699 E33.66265
G1 X133.366 Y96.238 E33.73422
G1 X133.838 Y96.83 E33.80576
G1 X134.245 Y97.469 E33.87736
G1 X134.583 Y98.147 E33.94895
G1 X134.847 Y98.856 E34.02044
G1 X135.035 Y99.59 E34.09205
G1 X135.144 Y100.339 E34.16357
G1 X135.175 Y101.001 E34.2262
G1 X135.175 Y121.999 E36.21051
G1 X135.135 Y122.755 E36.28205
G1 X135.016 Y123.503 E36.35363
G1 X134.818 Y124.234 E36.4252
G1 X134.544 Y124.941 E36.49685
G1 X134.198 Y125.614 E36.56836
G1 X133.782 Y126.247 E36.63994
G1 X133.302 Y126.833 E36.71152
G1 X132.763 Y127.365 E36.78309
G1 X132.171 Y127.837 E36.85464
G1 X131.532 Y128.244 E36.92624
G1 X130.854 Y128.582 E36.99783
G1 X130.145 Y128.846 E37.06932
G1 X129.411 Y129.034 E37.14092
G1 X128.662 Y129.143 E37.21245
G1 X128 Y129.174 E37.27508
G1 X95 Y129.174 E40.39358
G1 X94.244 Y129.134 E40.46512
G1 X93.496 Y129.015 E40.53669
G1 X92.765 Y128.817 E40.60826
G1 X92.058 Y128.543 E40.67992
G1 X91.385 Y128.197 E40.75143
G1 X90.752 Y127.781 E40.82301
G1 X90.166 Y127.301 E40.89459
G1 X89.634 Y126.762 E40.96616
G1 X89.162 Y126.17 E41.03771
G1 X88.755 Y125.531 E41.1093
G1 X88.417 Y124.853 E41.18089
G1 X88.153 Y124.144 E41.25239
G1 X87.965 Y123.41 E41.32399
G1 X87.856 Y122.661 E41.39551
G1 X87.825 Y121.999 E41.45814
G1 X87.825 Y101.001 E43.44245
G1 X87.865 Y100.245 E43.51399
G1 X87.984 Y99.497 E43.58557
G1 X88.182 Y98.766 E43.65714
G1 X88.456 Y98.059 E43.72879
G1 X88.802 Y97.386 E43.8003
G1 X89.218 Y96.753 E43.87188
G1 X89.698 Y96.167 E43.94347
G1 X90.237 Y95.635 E44.01503
G0 F4320 X90.579 Y95.801
G1 F1800 X91.167 Y95.354 E44.08483
G1 X91.8 Y94.973 E44.15465
G1 X92.47 Y94.662 E44.22445
G1 X93.17 Y94.426 E44.29426
G1 X93.891 Y94.267 E44.36403
G1 X94.626 Y94.186 E44.43391
G1 X95 Y94.176 E44.46927
G1 X128 Y94.176 E47.58777
G1 X128.738 Y94.216 E47.65761
G1 X129.466 Y94.335 E47.72732
G1 X130.178 Y94.533 E47.79716
G1 X130.864 Y94.806 E47.86693
G1 X131.517 Y95.152 E47.93677
G1 X132.129 Y95.566 E48.00659
G1 X132.692 Y96.044 E48.07638
G1 X133.2 Y96.58 E48.14617
G1 X133.647 Y97.168 E48.21597
G1 X134.028 Y97.801 E48.28579
G1 X134.339 Y98.471 E48.35559
G1 X134.575 Y99.171 E48.4254
G1 X134.734 Y99.892 E48.49517
G1 X134.815 Y100.627 E48.56505
G1 X134.825 Y101.001 E48.6004
G1 X134.825 Y121.999 E50.58471
G1 X134.785 Y122.737 E50.65456
G1 X134.666 Y123.465 E50.72427
G1 X134.468 Y124.177 E50.7941
G1 X134.195 Y124.863 E50.86388
G1 X133.849 Y125.516 E50.93371
G1 X133.435 Y126.128 E51.00354
G1 X132.957 Y126.691 E51.07333
G1 X132.421 Y127.199 E51.14312
G1 X131.833 Y127.646 E51.21291
G1 X131.2 Y128.027 E51.28273
G1 X130.53 Y128.338 E51.35254
G1 X129.83 Y128.574 E51.42234
G1 X129.109 Y128.733 E51.49212
G1 X128.374 Y128.814 E51.56199
G1 X128 Y128.824 E51.59735
G1 X95 Y128.824 E54.71585
G1 X94.262 Y128.784 E54.78569
G1 X93.534 Y128.665 E54.8554
G1 X92.822 Y128.467 E54.92524
G1 X92.136 Y128.194 E54.99501
G1 X91.483 Y127.848 E55.06485
G1 X90.871 Y127.434 E55.13467
G1 X90.308 Y126.956 E55.20446
G1 X89.8 Y126.42 E55.27425
G1 X89.353 Y125.832 E55.34405
G1 X88.972 Y125.199 E55.41387
G1 X88.661 Y124.529 E55.48367
G1 X88.425 Y123.829 E55.55348
G1 X88.266 Y123.108 E55.62325
G1 X88.185 Y122.373 E55.69313
G1 X88.175 Y121.999 E55.72848
G1 X88.175 Y101.001 E57.7128
G1 X88.215 Y100.263 E57.78264
G1 X88.334 Y99.535 E57.85235
G1 X88.532 Y98.823 E57.92219
G1 X88.805 Y98.137 E57.99196
G1 X89.151 Y97.484 E58.06179
G1 X89.565 Y96.872 E58.13162
G1 X90.043 Y96.309 E58.20141
G1 X90.579 Y95.801 E58.2712
G0 F4320 X90.921 Y95.972
G1 F1800 X91.504 Y95.551 E58.33915
G1 X92.131 Y95.197 E58.4072
G1 X92.792 Y94.914 E58.47514
G1 X93.481 Y94.707 E58.54313
G1 X94.189 Y94.577 E58.61115
G1 X95 Y94.526 E58.68795
G1 X128 Y94.526 E61.80645
G1 X128.718 Y94.566 E61.8744
G1 X129.428 Y94.685 E61.94243
G1 X130.12 Y94.883 E62.01045
G1 X130.785 Y95.156 E62.07838
G1 X131.417 Y95.501 E62.14643
G1 X132.006 Y95.914 E62.21441
G1 X132.545 Y96.39 E62.28236
G1 X133.029 Y96.922 E62.35033
G1 X133.45 Y97.505 E62.41828
G1 X133.804 Y98.132 E62.48633
G1 X134.087 Y98.793 E62.55428
G1 X134.294 Y99.482 E62.62226
G1 X134.424 Y100.19 E62.69029
G1 X134.475 Y101.001 E62.76708
G1 X134.475 Y121.999 E64.75139
G1 X134.435 Y122.717 E64.81934
G1 X134.316 Y123.427 E64.88737
G1 X134.118 Y124.119 E64.95539
G1 X133.845 Y124.784 E65.02332
G1 X133.5 Y125.416 E65.09137
G1 X133.087 Y126.005 E65.15935
G1 X132.611 Y126.544 E65.2273
G1 X132.079 Y127.028 E65.29527
G1 X131.496 Y127.449 E65.36323
G1 X130.869 Y127.803 E65.43127
G1 X130.208 Y128.086 E65.49922
G1 X129.519 Y128.293 E65.5672
G1 X128.811 Y128.423 E65.63523
G1 X128 Y128.474 E65.71202
G1 X95 Y128.474 E68.83052
G1 X94.282 Y128.434 E68.89847
G1 X93.572 Y128.315 E68.96651
G1 X92.88 Y128.117 E69.03452
G1 X92.215 Y127.844 E69.10246
G1 X91.583 Y127.499 E69.1705
G1 X90.994 Y127.086 E69.23848
G1 X90.455 Y126.61 E69.30643
G1 X89.971 Y126.078 E69.3744
G1 X89.55 Y125.495 E69.44236
G1 X89.196 Y124.868 E69.5104
G1 X88.913 Y124.207 E69.57835
G1 X88.706 Y123.518 E69.64633
G1 X88.576 Y122.81 E69.71436
G1 X88.525 Y121.999 E69.79115
G1 X88.525 Y101.001 E71.77546
G1 X88.565 Y100.283 E71.84342
G1 X88.684 Y99.573 E71.91145
G1 X88.882 Y98.881 E71.97947
G1 X89.155 Y98.216 E72.0474
G1 X89.5 Y97.584 E72.11544
G1 X89.913 Y96.995 E72.18342
G1 X90.389 Y96.456 E72.25137
G1 X90.921 Y95.972 E72.31934
G0 F4320 X91.262 Y96.149
G1 F1800 X91.84 Y95.754 E72.3855
G1 X92.459 Y95.428 E72.45161
G1 X93.111 Y95.174 E72.51773
G1 X93.788 Y94.997 E72.58386
G1 X94.481 Y94.898 E72.65002
G1 X95 Y94.876 E72.6991
G1 X128 Y94.876 E75.8176
G1 X128.699 Y94.916 E75.88377
G1 X129.388 Y95.035 E75.94984
G1 X130.059 Y95.233 E76.01596
G1 X130.704 Y95.505 E76.08211
G1 X131.313 Y95.849 E76.1482
G1 X131.879 Y96.261 E76.21436
G1 X132.394 Y96.734 E76.28044
G1 X132.852 Y97.263 E76.34656
G1 X133.247 Y97.841 E76.41272
G1 X133.573 Y98.46 E76.47883
G1 X133.827 Y99.112 E76.54496
G1 X134.004 Y99.789 E76.61108
G1 X134.103 Y100.482 E76.67724
G1 X134.125 Y101.001 E76.72633
G1 X134.125 Y121.999 E78.71064
G1 X134.085 Y122.698 E78.7768
G1 X133.966 Y123.387 E78.84288
G1 X133.768 Y124.058 E78.90899
G1 X133.496 Y124.703 E78.97514
G1 X133.152 Y125.312 E79.04124
G1 X132.74 Y125.878 E79.10739
G1 X132.267 Y126.393 E79.17347
G1 X131.738 Y126.851 E79.23959
G1 X131.16 Y127.246 E79.30575
G1 X130.541 Y127.572 E79.37186
G1 X129.889 Y127.826 E79.43799
G1 X129.212 Y128.003 E79.50412
G1 X128.519 Y128.102 E79.57027
G1 X128 Y128.124 E79.61936
G1 X95 Y128.124 E82.73786
G1 X94.301 Y128.084 E82.80402
G1 X93.612 Y127.965 E82.8701
G1 X92.941 Y127.767 E82.93621
G1 X92.296 Y127.495 E83.00236
G1 X91.687 Y127.151 E83.06846
G1 X91.121 Y126.739 E83.13461
G1 X90.606 Y126.266 E83.20069
G1 X90.148 Y125.737 E83.26682
G1 X89.753 Y125.159 E83.33297
G1 X89.427 Y124.54 E83.39909
G1 X89.173 Y123.888 E83.46521
G1 X88.996 Y123.211 E83.53134
G1 X88.897 Y122.518 E83.59749
G1 X88.875 Y121.999 E83.64658
G1 X88.875 Y101.001 E85.63089
G1 X88.915 Y100.302 E85.69705
G1 X89.034 Y99.613 E85.76313
G1 X89.232 Y98.942 E85.82924
G1 X89.504 Y98.297 E85.89539
G1 X89.848 Y97.688 E85.96149
G1 X90.26 Y97.122 E86.02765
G1 X90.733 Y96.607 E86.09373
G1 X91.262 Y96.149 E86.15985
G0 F4320 X91.602 Y96.332
G1 F1800 X92.174 Y95.965 E86.22407
G1 X92.785 Y95.668 E86.28827
G1 X93.427 Y95.444 E86.35253
G1 X94.09 Y95.298 E86.41668
G1 X95 Y95.226 E86.50295
G1 X128 Y95.226 E89.62145
G1 X128.678 Y95.266 E89.68563
G1 X129.347 Y95.385 E89.74984
G1 X129.997 Y95.582 E89.81402
G1 X130.62 Y95.854 E89.87827
G1 X131.206 Y96.198 E89.94248
G1 X131.748 Y96.608 E90.0067
G1 X132.238 Y97.078 E90.07086
G1 X132.669 Y97.603 E90.13505
G1 X133.036 Y98.175 E90.19928
G1 X133.333 Y98.786 E90.26348
G1 X133.557 Y99.428 E90.32773
G1 X133.703 Y100.091 E90.39189
G1 X133.775 Y101.001 E90.47815
G1 X133.775 Y121.999 E92.46246
G1 X133.735 Y122.677 E92.52664
G1 X133.616 Y123.346 E92.59086
G1 X133.419 Y123.996 E92.65504
G1 X133.147 Y124.619 E92.71928
G1 X132.803 Y125.205 E92.78349
G1 X132.393 Y125.747 E92.84772
G1 X131.923 Y126.237 E92.91188
G1 X131.398 Y126.668 E92.97607
G1 X130.826 Y127.035 E93.04029
G1 X130.215 Y127.332 E93.10449
G1 X129.573 Y127.556 E93.16875
G1 X128.91 Y127.702 E93.2329
G1 X128 Y127.774 E93.31917
G1 X95 Y127.774 E96.43767
G1 X94.322 Y127.734 E96.50185
G1 X93.653 Y127.615 E96.56606
G1 X93.003 Y127.418 E96.63025
G1 X92.38 Y127.146 E96.69449
G1 X91.794 Y126.802 E96.7587
G1 X91.252 Y126.392 E96.82292
G1 X90.762 Y125.922 E96.88709
G1 X90.331 Y125.397 E96.95127
G1 X89.964 Y124.825 E97.0155
G1 X89.667 Y124.214 E97.0797
G1 X89.443 Y123.572 E97.14395
G1 X89.297 Y122.909 E97.20811
G1 X89.225 Y121.999 E97.29437
G1 X89.225 Y101.001 E99.27868
G1 X89.265 Y100.323 E99.34287
G1 X89.384 Y99.654 E99.40708
G1 X89.581 Y99.004 E99.47126
G1 X89.853 Y98.381 E99.5355
G1 X90.197 Y97.795 E99.59972
G1 X90.607 Y97.253 E99.66394
G1 X91.077 Y96.763 E99.7281
G1 X91.602 Y96.332 E99.79229
G0 F4320 X91.941 Y96.521
G1 F1800 X92.506 Y96.183 E99.85451
G1 X93.108 Y95.917 E99.9167
G1 X93.738 Y95.725 E99.97894
G1 X94.386 Y95.611 E100.04112
G1 X95 Y95.576 E100.09923
G1 X128 Y95.576 E103.21773
G1 X128.657 Y95.616 E103.27994
G1 X129.305 Y95.735 E103.3422
G1 X129.933 Y95.932 E103.40439
G1 X130.533 Y96.204 E103.46665
G1 X131.096 Y96.546 E103.5289
G1 X131.613 Y96.954 E103.59114
G1 X132.076 Y97.421 E103.65328
G1 X132.48 Y97.942 E103.71558
G1 X132.818 Y98.507 E103.7778
G1 X133.084 Y99.109 E103.84
G1 X133.276 Y99.739 E103.90223
G1 X133.39 Y100.387 E103.96441
G1 X133.425 Y101.001 E104.02253
G1 X133.425 Y121.999 E106.00684
G1 X133.385 Y122.656 E106.06904
G1 X133.266 Y123.304 E106.1313
G1 X133.069 Y123.932 E106.1935
G1 X132.797 Y124.532 E106.25575
G1 X132.455 Y125.095 E106.318
G1 X132.047 Y125.612 E106.38024
G1 X131.58 Y126.075 E106.44238
G1 X131.059 Y126.479 E106.50469
G1 X130.494 Y126.817 E106.5669
G1 X129.892 Y127.083 E106.6291
G1 X129.262 Y127.275 E106.69134
G1 X128.614 Y127.389 E106.75351
G1 X128 Y127.424 E106.81163
G1 X95 Y127.424 E109.93013
G1 X94.343 Y127.384 E109.99233
G1 X93.695 Y127.265 E110.05459
G1 X93.067 Y127.068 E110.11679
G1 X92.467 Y126.796 E110.17904
G1 X91.904 Y126.454 E110.2413
G1 X91.387 Y126.046 E110.30353
G1 X90.924 Y125.579 E110.36568
G1 X90.52 Y125.058 E110.42798
G1 X90.182 Y124.493 E110.4902
G1 X89.916 Y123.891 E110.55239
G1 X89.724 Y123.261 E110.61463
G1 X89.61 Y122.613 E110.67681
G1 X89.575 Y121.999 E110.73492
G1 X89.575 Y101.001 E112.71924
G1 X89.615 Y100.344 E112.78144
G1 X89.734 Y99.696 E112.8437
G1 X89.931 Y99.068 E112.90589
G1 X90.203 Y98.468 E112.96815
G1 X90.545 Y97.905 E113.0304
G1 X90.953 Y97.388 E113.09264
G1 X91.42 Y96.925 E113.15478
G1 X91.941 Y96.521 E113.21708
G0 F4320 X92.278 Y96.718
G1 F1800 X92.835 Y96.411 E113.27719
G1 X93.427 Y96.176 E113.33738
G1 X94.044 Y96.017 E113.39759
G1 X94.676 Y95.936 E113.4578
G1 X95 Y95.926 E113.48843
G1 X128 Y95.926 E116.60693
G1 X128.636 Y95.966 E116.66715
G1 X129.261 Y96.085 E116.72728
G1 X129.867 Y96.282 E116.78749
G1 X130.443 Y96.553 E116.84765
G1 X130.981 Y96.894 E116.90784
G1 X131.472 Y97.3 E116.96805
G1 X131.908 Y97.764 E117.02822
G1 X132.283 Y98.279 E117.08842
G1 X132.59 Y98.836 E117.14852
G1 X132.825 Y99.428 E117.20871
G1 X132.984 Y100.045 E117.26893
G1 X133.065 Y100.677 E117.32914
G1 X133.075 Y101.001 E117.35977
G1 X133.075 Y121.999 E119.34408
G1 X133.035 Y122.635 E119.4043
G1 X132.916 Y123.26 E119.46443
G1 X132.719 Y123.866 E119.52464
G1 X132.448 Y124.442 E119.5848
G1 X132.107 Y124.98 E119.64499
G1 X131.701 Y125.471 E119.7052
G1 X131.237 Y125.907 E119.76537
G1 X130.722 Y126.282 E119.82557
G1 X130.165 Y126.589 E119.88567
G1 X129.573 Y126.824 E119.94586
G1 X128.956 Y126.983 E120.00607
G1 X128.324 Y127.064 E120.06629
G1 X128 Y127.074 E120.09692
