;FLAVOR:UltiGCode
;TIME:1218
;MATERIAL:710
;MATERIAL2:0
;NOZZLE_DIAMETER:0.4
;Generated with Cura_SteamEngine 2.5.0

;LAYER_COUNT:96
;LAYER:0
M107
G0 F4320 X102.298 Y104.385 Z0.27
;TYPE:SKIRT
G1 F1800 X102.887 Y103.852 E0.07507
G1 X103.525 Y103.381 E0.15001
G1 X104.208 Y102.977 E0.225
G1 X104.587 Y102.802 E0.26445
G1 X104.753 Y102.641 E0.2863
G1 X105.375 Y102.148 E0.3613
G1 X106.044 Y101.721 E0.4363
G1 X106.936 Y101.285 E0.53013
G1 X107.648 Y100.991 E0.60292
G1 X108.396 Y100.726 E0.67791
G1 X109.167 Y100.537 E0.75293
G1 X109.953 Y100.426 E0.82794
G1 X110.352 Y100.411 E0.86568
G1 X110.558 Y100.329 E0.88663
G1 X111.321 Y100.112 E0.96159
G1 X112.102 Y99.973 E1.03656
G1 X113.093 Y99.91 E1.13039
G1 X113.865 Y99.91 E1.20335
G1 X114.657 Y99.95 E1.27829
G1 X115.442 Y100.069 E1.35332
G1 X116.21 Y100.267 E1.42827
G1 X116.593 Y100.408 E1.46684
G1 X116.83 Y100.412 E1.48924
G1 X117.618 Y100.505 E1.56422
G1 X118.393 Y100.676 E1.63922
G1 X119.312 Y100.991 E1.73102
G1 X120.024 Y101.285 E1.80382
G1 X120.741 Y101.625 E1.87881
G1 X121.42 Y102.034 E1.95371
G1 X122.055 Y102.511 E2.02876
G1 X122.366 Y102.797 E2.06869
G1 X122.58 Y102.89 E2.09074
G1 X123.272 Y103.277 E2.16567
G1 X123.922 Y103.732 E2.24065
G1 X124.655 Y104.38 E2.3331
G1 X125.2 Y104.925 E2.40594
G1 X125.733 Y105.513 E2.48093
G1 X126.203 Y106.152 E2.55589
G1 X126.606 Y106.836 E2.63092
G1 X126.779 Y107.209 E2.66977
G1 X127.069 Y107.525 E2.7103
G1 X127.545 Y108.159 E2.78522
G1 X127.955 Y108.839 E2.86026
G1 X128.293 Y109.553 E2.93491
G1 X128.587 Y110.264 E3.00762
G1 X128.853 Y111.011 E3.08255
G1 X129.043 Y111.782 E3.15759
G1 X129.153 Y112.568 E3.23259
G1 X129.168 Y112.948 E3.26853
G1 X129.17 Y112.952 E3.26895
G1 X129.411 Y113.708 E3.34394
G1 X129.574 Y114.484 E3.41887
G1 X129.659 Y115.273 E3.49386
G1 X129.671 Y115.715 E3.53565
G1 X129.671 Y116.485 E3.60841
G1 X129.631 Y117.277 E3.68335
G1 X129.512 Y118.062 E3.75838
G1 X129.314 Y118.83 E3.83333
G1 X129.172 Y119.215 E3.87211
G1 X129.169 Y119.427 E3.89214
G1 X129.079 Y120.216 E3.96719
G1 X128.909 Y120.991 E4.04217
G1 X128.589 Y121.932 E4.13609
G1 X128.295 Y122.644 E4.20889
G1 X127.955 Y123.361 E4.28388
G1 X127.546 Y124.04 E4.35878
G1 X127.069 Y124.675 E4.43383
G1 X126.784 Y124.985 E4.47363
G1 X126.69 Y125.201 E4.49589
G1 X126.303 Y125.893 E4.57082
G1 X125.848 Y126.543 E4.64579
G1 X125.2 Y127.276 E4.73825
G1 X124.655 Y127.821 E4.81108
G1 X124.067 Y128.354 E4.88608
G1 X123.428 Y128.824 E4.96104
G1 X122.744 Y129.227 E5.03607
G1 X122.376 Y129.397 E5.07437
G1 X122.208 Y129.56 E5.09649
G1 X121.585 Y130.052 E5.17151
G1 X120.917 Y130.479 E5.24643
G1 X120.015 Y130.919 E5.34127
G1 X119.303 Y131.212 E5.41403
G1 X118.555 Y131.477 E5.48902
G1 X117.784 Y131.665 E5.56402
G1 X116.998 Y131.775 E5.63902
G1 X116.609 Y131.789 E5.6758
G1 X116.39 Y131.876 E5.69807
G1 X115.627 Y132.092 E5.77301
G1 X114.845 Y132.23 E5.84805
G1 X113.866 Y132.291 E5.94074
G1 X113.093 Y132.291 E6.01379
G1 X112.301 Y132.251 E6.08873
G1 X111.516 Y132.132 E6.16376
G1 X110.748 Y131.934 E6.23871
G1 X110.362 Y131.791 E6.27761
G1 X110.139 Y131.788 E6.29868
G1 X109.351 Y131.697 E6.37365
G1 X108.576 Y131.526 E6.44864
G1 X107.657 Y131.212 E6.54042
G1 X106.945 Y130.919 E6.61318
G1 X106.228 Y130.581 E6.68809
G1 X105.548 Y130.172 E6.76307
G1 X104.912 Y129.697 E6.83809
G1 X104.594 Y129.405 E6.87889
G1 X104.376 Y129.31 E6.90136
G1 X103.684 Y128.922 E6.97633
G1 X103.034 Y128.467 E7.05131
G1 X102.298 Y127.816 E7.14416
G1 X101.754 Y127.271 E7.21693
G1 X101.223 Y126.682 E7.29187
G1 X100.753 Y126.043 E7.36683
G1 X100.35 Y125.359 E7.44186
G1 X100.181 Y124.993 E7.47995
G1 X100.016 Y124.822 E7.50241
G1 X99.524 Y124.199 E7.57743
G1 X99.098 Y123.53 E7.65238
G1 X98.665 Y122.644 E7.74557
G1 X98.371 Y121.932 E7.81836
G1 X98.106 Y121.184 E7.89335
G1 X97.917 Y120.413 E7.96837
G1 X97.806 Y119.627 E8.04338
G1 X97.791 Y119.229 E8.08102
G1 X97.711 Y119.029 E8.10138
G1 X97.493 Y118.266 E8.17637
G1 X97.353 Y117.485 E8.25135
G1 X97.289 Y116.486 E8.34595
G1 X97.289 Y115.715 E8.41881
G1 X97.329 Y114.923 E8.49375
G1 X97.448 Y114.138 E8.56878
G1 X97.646 Y113.37 E8.64372
G1 X97.789 Y112.984 E8.68262
G1 X97.792 Y112.758 E8.70398
G1 X97.883 Y111.97 E8.77894
G1 X98.054 Y111.195 E8.85394
G1 X98.373 Y110.264 E8.94694
G1 X98.667 Y109.553 E9.01965
G1 X99.006 Y108.836 E9.0946
G1 X99.417 Y108.157 E9.1696
G1 X99.893 Y107.522 E9.2446
G1 X100.178 Y107.213 E9.28432
G1 X100.273 Y106.994 E9.30688
G1 X100.661 Y106.302 E9.38185
G1 X101.116 Y105.652 E9.45683
G1 X101.754 Y104.93 E9.54788
G1 X102.298 Y104.385 E9.62065
G0 F4320 X102.546 Y104.632
G1 F1800 X103.122 Y104.112 E9.69398
G1 X103.748 Y103.654 E9.76728
G1 X104.417 Y103.263 E9.84051
G1 X104.788 Y103.095 E9.879
G1 X105.089 Y102.813 E9.91797
G1 X105.707 Y102.344 E9.99129
G1 X106.37 Y101.941 E10.06461
G1 X107.07 Y101.609 E10.13782
G1 X107.782 Y101.315 E10.21062
G1 X108.513 Y101.056 E10.2839
G1 X109.267 Y100.874 E10.3572
G1 X110.036 Y100.77 E10.43053
G1 X110.428 Y100.758 E10.4676
G1 X110.803 Y100.617 E10.50546
G1 X111.553 Y100.419 E10.57876
G1 X112.319 Y100.3 E10.65201
G1 X113.093 Y100.26 E10.72525
G1 X113.865 Y100.26 E10.79821
G1 X114.64 Y100.3 E10.87154
G1 X115.406 Y100.419 E10.9448
G1 X116.156 Y100.617 E11.0181
G1 X116.531 Y100.758 E11.05596
G1 X116.963 Y100.774 E11.09681
G1 X117.731 Y100.881 E11.17009
G1 X118.484 Y101.067 E11.24339
G1 X119.178 Y101.315 E11.31303
G1 X119.89 Y101.609 E11.38583
G1 X120.591 Y101.941 E11.45913
G1 X121.253 Y102.344 E11.53236
G1 X121.871 Y102.813 E11.60568
G1 X122.173 Y103.096 E11.64479
G1 X122.564 Y103.275 E11.68543
G1 X123.233 Y103.668 E11.75875
G1 X123.857 Y104.128 E11.83201
G1 X124.408 Y104.627 E11.90226
G1 X124.953 Y105.172 E11.97509
G1 X125.472 Y105.748 E12.04836
G1 X125.93 Y106.374 E12.12166
G1 X126.32 Y107.045 E12.195
G1 X126.479 Y107.396 E12.23142
G1 X126.899 Y107.87 E12.29126
G1 X127.351 Y108.501 E12.36461
G1 X127.735 Y109.175 E12.43792
G1 X127.97 Y109.687 E12.49116
G1 X128.264 Y110.398 E12.56386
G1 X128.523 Y111.129 E12.63715
G1 X128.705 Y111.882 E12.71036
G1 X128.809 Y112.651 E12.78369
G1 X128.821 Y113.039 E12.82037
G1 X128.896 Y113.222 E12.83906
G1 X129.115 Y113.966 E12.91235
G1 X129.256 Y114.729 E12.98568
G1 X129.321 Y115.715 E13.07906
G1 X129.321 Y116.485 E13.15182
G1 X129.281 Y117.26 E13.22516
G1 X129.162 Y118.026 E13.29841
G1 X128.964 Y118.776 E13.37172
G1 X128.822 Y119.153 E13.40979
G1 X128.81 Y119.544 E13.44675
G1 X128.706 Y120.313 E13.52008
G1 X128.524 Y121.067 E13.59338
G1 X128.265 Y121.798 E13.66667
G1 X127.971 Y122.51 E13.73947
G1 X127.639 Y123.211 E13.81276
G1 X127.236 Y123.873 E13.886
G1 X126.767 Y124.491 E13.95932
G1 X126.485 Y124.792 E13.9983
G1 X126.305 Y125.185 E14.03914
G1 X125.912 Y125.854 E14.11247
G1 X125.452 Y126.478 E14.18572
G1 X124.953 Y127.029 E14.25597
G1 X124.408 Y127.574 E14.32881
G1 X123.832 Y128.093 E14.40208
G1 X123.206 Y128.551 E14.47538
G1 X122.535 Y128.941 E14.54872
G1 X122.174 Y129.104 E14.58615
G1 X121.871 Y129.388 E14.62539
G1 X121.254 Y129.857 E14.69863
G1 X120.591 Y130.26 E14.77195
G1 X119.882 Y130.596 E14.8461
G1 X119.17 Y130.889 E14.91886
G1 X118.438 Y131.147 E14.9922
G1 X117.684 Y131.328 E15.06548
G1 X116.915 Y131.43 E15.13878
G1 X116.535 Y131.441 E15.17471
G1 X116.129 Y131.593 E15.21568
G1 X115.378 Y131.788 E15.289
G1 X114.611 Y131.904 E15.36231
G1 X113.866 Y131.941 E15.4328
G1 X113.093 Y131.941 E15.50584
G1 X112.318 Y131.901 E15.57918
G1 X111.552 Y131.782 E15.65243
G1 X110.802 Y131.584 E15.72574
G1 X110.426 Y131.442 E15.76372
G1 X110.023 Y131.429 E15.80182
G1 X109.255 Y131.324 E15.87507
G1 X108.501 Y131.14 E15.94842
G1 X107.79 Y130.889 E16.01967
G1 X107.078 Y130.596 E16.09243
G1 X106.377 Y130.264 E16.16573
G1 X105.714 Y129.862 E16.239
G1 X105.096 Y129.394 E16.31226
G1 X104.789 Y129.107 E16.35197
G1 X104.392 Y128.925 E16.39324
G1 X103.724 Y128.531 E16.46653
G1 X103.099 Y128.071 E16.53986
G1 X102.546 Y127.569 E16.61044
G1 X102.002 Y127.024 E16.68321
G1 X101.483 Y126.448 E16.75648
G1 X101.026 Y125.821 E16.8298
G1 X100.636 Y125.15 E16.90314
G1 X100.475 Y124.792 E16.94024
G1 X100.177 Y124.472 E16.98156
G1 X99.71 Y123.853 E17.05484
G1 X99.31 Y123.189 E17.12809
G1 X98.989 Y122.51 E17.19906
G1 X98.695 Y121.798 E17.27186
G1 X98.436 Y121.067 E17.34515
G1 X98.254 Y120.313 E17.41844
G1 X98.15 Y119.544 E17.49178
G1 X98.138 Y119.154 E17.52865
G1 X97.998 Y118.784 E17.56603
G1 X97.8 Y118.034 E17.63934
G1 X97.68 Y117.267 E17.7127
G1 X97.639 Y116.486 E17.78661
G1 X97.639 Y115.715 E17.85947
G1 X97.679 Y114.94 E17.9328
G1 X97.798 Y114.174 E18.00606
G1 X97.996 Y113.424 E18.07936
G1 X98.138 Y113.048 E18.11734
G1 X98.151 Y112.642 E18.15573
G1 X98.256 Y111.874 E18.22898
G1 X98.44 Y111.12 E18.30232
G1 X98.696 Y110.398 E18.37471
G1 X98.99 Y109.687 E18.44742
G1 X99.323 Y108.986 E18.52076
G1 X99.726 Y108.323 E18.59408
G1 X100.196 Y107.706 E18.66738
G1 X100.476 Y107.407 E18.70609
G1 X100.658 Y107.01 E18.74736
G1 X101.052 Y106.342 E18.82065
G1 X101.512 Y105.718 E18.8939
G1 X102.002 Y105.177 E18.96288
G1 X102.546 Y104.632 E19.03565
G0 F4320 X102.794 Y104.879
G1 F1800 X103.356 Y104.372 E19.10718
G1 X103.969 Y103.927 E19.17876
G1 X104.626 Y103.549 E19.25039
G1 X104.976 Y103.394 E19.28656
G1 X105.425 Y102.989 E19.3437
G1 X106.038 Y102.544 E19.41529
G1 X106.694 Y102.166 E19.48683
G1 X107.204 Y101.932 E19.53986
G1 X107.916 Y101.638 E19.61265
G1 X108.63 Y101.386 E19.68421
G1 X109.367 Y101.211 E19.75579
G1 X110.118 Y101.115 E19.82734
G1 X110.487 Y101.107 E19.86222
G1 X111.046 Y100.908 E19.91829
G1 X111.782 Y100.731 E19.98982
G1 X112.533 Y100.632 E20.06141
G1 X113.093 Y100.61 E20.11437
G1 X113.865 Y100.61 E20.18732
G1 X114.621 Y100.65 E20.25886
G1 X115.369 Y100.769 E20.33044
G1 X116.1 Y100.967 E20.40201
G1 X116.446 Y101.101 E20.43707
G1 X117.092 Y101.138 E20.49822
G1 X117.84 Y101.261 E20.56985
G1 X118.57 Y101.462 E20.64141
G1 X119.044 Y101.638 E20.68919
G1 X119.756 Y101.932 E20.76198
G1 X120.44 Y102.258 E20.83358
G1 X121.086 Y102.654 E20.90519
G1 X121.686 Y103.115 E20.97669
G1 X121.965 Y103.381 E21.01312
G1 X122.544 Y103.661 E21.0739
G1 X123.188 Y104.06 E21.14549
G1 X123.785 Y104.525 E21.217
G1 X124.16 Y104.875 E21.26547
G1 X124.705 Y105.42 E21.33831
G1 X125.212 Y105.983 E21.40991
G1 X125.656 Y106.596 E21.48143
G1 X126.034 Y107.253 E21.55306
G1 X126.183 Y107.589 E21.5878
G1 X126.234 Y107.638 E21.59448
G1 X126.724 Y108.215 E21.66602
G1 X127.151 Y108.841 E21.73763
G1 X127.647 Y109.82 E21.84134
G1 X127.941 Y110.531 E21.91404
G1 X128.193 Y111.245 E21.9856
G1 X128.368 Y111.982 E22.05718
G1 X128.465 Y112.733 E22.12874
G1 X128.474 Y113.117 E22.16504
G1 X128.617 Y113.49 E22.20279
G1 X128.814 Y114.221 E22.27433
G1 X128.932 Y114.969 E22.34589
G1 X128.971 Y115.715 E22.41648
G1 X128.971 Y116.485 E22.48925
G1 X128.931 Y117.241 E22.56079
G1 X128.812 Y117.989 E22.63237
G1 X128.614 Y118.72 E22.70393
G1 X128.476 Y119.075 E22.73993
G1 X128.448 Y119.657 E22.79499
G1 X128.331 Y120.406 E22.86663
G1 X128.136 Y121.138 E22.93822
G1 X127.942 Y121.664 E22.9912
G1 X127.648 Y122.376 E23.06399
G1 X127.322 Y123.06 E23.13559
G1 X126.926 Y123.706 E23.2072
G1 X126.465 Y124.306 E23.2787
G1 X126.2 Y124.584 E23.315
G1 X125.919 Y125.165 E23.37599
G1 X125.52 Y125.809 E23.44758
G1 X125.055 Y126.406 E23.51909
G1 X124.705 Y126.781 E23.56756
G1 X124.16 Y127.326 E23.6404
G1 X123.597 Y127.833 E23.71199
G1 X122.984 Y128.277 E23.78352
G1 X122.327 Y128.655 E23.85515
G1 X121.984 Y128.807 E23.8906
G1 X121.536 Y129.211 E23.94761
G1 X120.923 Y129.656 E24.0192
G1 X120.267 Y130.034 E24.09074
G1 X119.748 Y130.272 E24.1447
G1 X119.036 Y130.565 E24.21746
G1 X118.322 Y130.816 E24.28898
G1 X117.585 Y130.99 E24.36054
G1 X116.833 Y131.086 E24.43218
G1 X116.479 Y131.093 E24.46564
G1 X115.87 Y131.306 E24.52661
G1 X115.132 Y131.478 E24.59822
G1 X114.381 Y131.572 E24.66974
G1 X113.866 Y131.591 E24.71844
G1 X113.093 Y131.591 E24.79149
G1 X112.337 Y131.551 E24.86303
G1 X111.589 Y131.432 E24.93461
G1 X110.858 Y131.234 E25.00618
G1 X110.503 Y131.097 E25.04214
G1 X109.91 Y131.066 E25.09825
G1 X109.162 Y130.948 E25.16981
G1 X108.431 Y130.752 E25.24133
G1 X107.924 Y130.565 E25.2924
G1 X107.212 Y130.272 E25.36516
G1 X106.527 Y129.947 E25.4368
G1 X105.881 Y129.552 E25.50836
G1 X105.28 Y129.091 E25.57994
G1 X104.994 Y128.82 E25.61717
G1 X104.412 Y128.539 E25.67824
G1 X103.769 Y128.139 E25.74981
G1 X103.171 Y127.674 E25.82139
G1 X102.794 Y127.322 E25.87013
G1 X102.25 Y126.777 E25.9429
G1 X101.744 Y126.213 E26.01451
G1 X101.3 Y125.6 E26.08603
G1 X100.923 Y124.943 E26.15762
G1 X100.776 Y124.608 E26.19219
G1 X100.344 Y124.123 E26.25356
G1 X99.902 Y123.508 E26.32513
G1 X99.528 Y122.85 E26.39666
G1 X99.312 Y122.376 E26.44588
G1 X99.018 Y121.664 E26.51868
G1 X98.766 Y120.95 E26.59023
G1 X98.591 Y120.213 E26.66181
G1 X98.495 Y119.462 E26.73336
G1 X98.487 Y119.094 E26.76814
G1 X98.289 Y118.54 E26.82374
G1 X98.111 Y117.804 E26.8953
G1 X98.011 Y117.054 E26.9668
G1 X97.989 Y116.486 E27.02051
G1 X97.989 Y115.715 E27.09337
G1 X98.029 Y114.959 E27.16492
G1 X98.148 Y114.211 E27.23649
G1 X98.346 Y113.48 E27.30806
G1 X98.483 Y113.126 E27.34393
G1 X98.514 Y112.529 E27.40042
G1 X98.632 Y111.781 E27.47198
G1 X98.828 Y111.05 E27.5435
G1 X99.019 Y110.531 E27.59576
G1 X99.313 Y109.82 E27.66847
G1 X99.639 Y109.137 E27.73999
G1 X100.036 Y108.491 E27.81164
G1 X100.498 Y107.891 E27.8832
G1 X100.761 Y107.615 E27.91923
G1 X101.044 Y107.03 E27.98064
G1 X101.444 Y106.387 E28.05221
G1 X101.909 Y105.79 E28.12372
G1 X102.25 Y105.424 E28.17099
G1 X102.794 Y104.879 E28.24376
G0 F4320 X103.042 Y105.126
G1 F1800 X103.591 Y104.633 E28.31349
G1 X104.19 Y104.201 E28.38328
G1 X104.833 Y103.837 E28.4531
G1 X105.164 Y103.694 E28.48717
G1 X105.201 Y103.654 E28.49232
G1 X105.76 Y103.171 E28.56214
G1 X106.367 Y102.75 E28.63194
G1 X107.337 Y102.256 E28.73481
G1 X108.049 Y101.962 E28.80761
G1 X108.746 Y101.717 E28.87742
G1 X109.465 Y101.549 E28.9472
G1 X110.199 Y101.46 E29.01707
G1 X110.544 Y101.456 E29.04968
G1 X110.585 Y101.437 E29.05395
G1 X111.286 Y101.204 E29.12375
G1 X112.008 Y101.047 E29.19358
G1 X113.093 Y100.96 E29.29644
G1 X113.865 Y100.96 E29.36939
G1 X114.603 Y101 E29.43924
G1 X115.331 Y101.119 E29.50895
G1 X116.043 Y101.317 E29.57878
G1 X116.377 Y101.45 E29.61276
G1 X116.481 Y101.447 E29.62259
G1 X117.217 Y101.506 E29.69236
G1 X117.943 Y101.644 E29.7622
G1 X118.911 Y101.962 E29.85848
G1 X119.623 Y102.256 E29.93128
G1 X120.289 Y102.574 E30.00102
G1 X120.917 Y102.963 E30.07083
G1 X121.5 Y103.417 E30.14066
G1 X121.767 Y103.676 E30.17581
G1 X121.861 Y103.712 E30.18532
G1 X122.519 Y104.048 E30.25514
G1 X123.136 Y104.454 E30.32494
G1 X123.913 Y105.122 E30.42177
G1 X124.458 Y105.667 E30.49461
G1 X124.951 Y106.217 E30.56441
G1 X125.382 Y106.817 E30.63422
G1 X125.746 Y107.46 E30.70404
G1 X125.892 Y107.8 E30.73901
G1 X126.079 Y107.985 E30.76387
G1 X126.544 Y108.559 E30.83368
G1 X126.944 Y109.18 E30.90348
G1 X127.323 Y109.954 E30.98492
G1 X127.617 Y110.665 E31.05763
G1 X127.862 Y111.362 E31.12745
G1 X128.03 Y112.081 E31.19722
G1 X128.12 Y112.814 E31.26701
G1 X128.124 Y113.172 E31.30084
G1 X128.334 Y113.755 E31.3594
G1 X128.507 Y114.473 E31.42919
G1 X128.602 Y115.206 E31.49904
G1 X128.621 Y115.715 E31.54718
G1 X128.621 Y116.485 E31.61994
G1 X128.581 Y117.223 E31.68978
G1 X128.462 Y117.951 E31.75949
G1 X128.264 Y118.663 E31.82933
G1 X128.133 Y118.993 E31.86288
G1 X128.134 Y119.03 E31.86638
G1 X128.083 Y119.767 E31.93619
G1 X127.952 Y120.494 E32.006
G1 X127.618 Y121.531 E32.10896
G1 X127.324 Y122.243 E32.18175
G1 X127.006 Y122.909 E32.25149
G1 X126.617 Y123.537 E32.3213
G1 X126.163 Y124.12 E32.39113
G1 X125.904 Y124.387 E32.42628
G1 X125.868 Y124.482 E32.43588
G1 X125.532 Y125.14 E32.5057
G1 X125.126 Y125.757 E32.5755
G1 X124.458 Y126.534 E32.67233
G1 X123.913 Y127.079 E32.74517
G1 X123.363 Y127.572 E32.81497
G1 X122.763 Y128.003 E32.88478
G1 X122.12 Y128.367 E32.9546
G1 X121.795 Y128.507 E32.98804
G1 X121.759 Y128.546 E32.99306
G1 X121.201 Y129.03 E33.06286
G1 X120.594 Y129.45 E33.13262
G1 X119.615 Y129.948 E33.23641
G1 X118.903 Y130.241 E33.30917
G1 X118.206 Y130.485 E33.37896
G1 X117.486 Y130.652 E33.4488
G1 X116.753 Y130.74 E33.51857
G1 X116.409 Y130.744 E33.55108
G1 X116.316 Y130.786 E33.56072
G1 X115.614 Y131.013 E33.63044
